img/illo.svg

<svg fill="none" height="190" viewBox="0 0 465 190" width="465" xmlns="http://www.w3.org/2000/svg"><rect fill="#56ccf2" height="190" rx="6" width="465"/><path d="m222.194 21.1836h65.1079v82.207h-65.1079z" fill="#fff"/><path d="m228.772 27.7607h65.1079v82.207h-65.1079z" fill="#000"/><g stroke="#fff" stroke-linecap="round" stroke-linejoin="round" stroke-width="1.70639"><path d="m221.534 61.8281h-71.627c-19.282 0-34.913 15.6311-34.913 34.913s15.631 34.9129 34.913 34.9129h18.686"/><path d="m213.308 52.751 9.113 9.1133-9.113 9.1133"/><path d="m294.711 61.7297c19.282 0 34.913 15.631 34.913 34.913 0 19.2823-15.631 34.9133-34.913 34.9133h-71.628"/><path d="m231.31 140.633-9.113-9.113 9.113-9.114"/></g><path d="m155.345 79.7158h65.1079v82.207h-65.1079z" fill="#fff500" transform="matrix(.96592583 .25881905 -.25881905 .96592583 25.92522 -37.489995)"/><path d="m176.352 104.706v45.912" stroke="#f66" stroke-width=".853196"/><path d="m197.199 127.528h-41.432" stroke="#f66" stroke-width=".853196"/><path d="m0-.426598h25.7552" stroke="#f66" stroke-width=".853196" transform="matrix(-.707107 -.707106 .707107 -.707106 186.3 136.355)"/><path d="m185.483 118.445-18.212 18.212" stroke="#f66" stroke-width=".853196"/><path d="m260.821 42.8628c.191-.9009 1.477-.9009 1.669 0l2.493 11.7225c.137.6423.917.896 1.405.4566l8.908-8.018c.685-.6163 1.725.1395 1.35.981l-4.873 10.9493c-.267.6.216 1.264.869 1.1955l11.919-1.2511c.916-.0961 1.313 1.1267.516 1.5874l-10.378 5.9938c-.569.3285-.569 1.1493 0 1.4777l10.378 5.9938c.797.4607.4 1.6836-.516 1.5874l-11.919-1.251c-.653-.0686-1.136.5955-.869 1.1954l4.873 10.9493c.375.8415-.665 1.5973-1.35.9811l-8.908-8.0181c-.488-.4394-1.268-.1857-1.405.4566l-2.493 11.7225c-.192.9009-1.478.9009-1.669 0l-2.494-11.7225c-.136-.6423-.917-.896-1.405-.4566l-8.908 8.0181c-.684.6162-1.724-.1396-1.35-.9811l4.873-10.9493c.267-.5999-.215-1.264-.868-1.1954l-11.92 1.251c-.916.0962-1.313-1.1267-.515-1.5874l10.378-5.9938c.568-.3284.568-1.1492 0-1.4777l-10.378-5.9938c-.798-.4607-.401-1.6835.515-1.5874l11.92 1.2511c.653.0685 1.135-.5955.868-1.1955l-4.873-10.9493c-.374-.8415.666-1.5973 1.35-.981l8.908 8.018c.488.4394 1.269.1857 1.405-.4566z" fill="#fff500"/><circle cx="222.195" cy="61.9585" fill="#fff500" r="5.26125"/><path d="m284.015 131.669s-8.539 8.549-19.072 8.549-19.072-8.549-19.072-8.549 8.539-8.55 19.072-8.55 19.072 8.55 19.072 8.55z" fill="#fff" stroke="#fff" stroke-linecap="round" stroke-linejoin="round" stroke-width="1.70639"/><circle cx="264.943" cy="131.67" fill="#00ba8d" r="7.23422"/><circle cx="264.943" cy="131.669" fill="#000" r="3.94594"/></svg>

<svg width="465" height="190" viewBox="0 0 465 190" fill="none" xmlns="http://www.w3.org/2000/svg">
<rect width="465" height="190" rx="6" fill="#56CCF2"/>
<rect x="222.194" y="21.1836" width="65.1079" height="82.207" fill="white"/>
<rect x="228.772" y="27.7607" width="65.1079" height="82.207" fill="black"/>
<path d="M221.534 61.8281L149.907 61.8281C130.625 61.8281 114.994 77.4592 114.994 96.7411C114.994 116.023 130.625 131.654 149.907 131.654L168.593 131.654" stroke="white" stroke-width="1.70639" stroke-linecap="round" stroke-linejoin="round"/>
<path d="M213.308 52.751L222.421 61.8643L213.308 70.9776" stroke="white" stroke-width="1.70639" stroke-linecap="round" stroke-linejoin="round"/>
<path d="M294.711 61.7297C313.993 61.7297 329.624 77.3607 329.624 96.6427C329.624 115.925 313.993 131.556 294.711 131.556L223.083 131.556" stroke="white" stroke-width="1.70639" stroke-linecap="round" stroke-linejoin="round"/>
<path d="M231.31 140.633L222.197 131.52L231.31 122.406" stroke="white" stroke-width="1.70639" stroke-linecap="round" stroke-linejoin="round"/>
<rect x="155.345" y="79.7158" width="65.1079" height="82.207" transform="rotate(15 155.345 79.7158)" fill="#FFF500"/>
<line x1="176.352" y1="104.706" x2="176.352" y2="150.618" stroke="#FF6666" stroke-width="0.853196"/>
<line x1="197.199" y1="127.528" x2="155.767" y2="127.528" stroke="#FF6666" stroke-width="0.853196"/>
<line y1="-0.426598" x2="25.7552" y2="-0.426598" transform="matrix(-0.707107 -0.707106 0.707107 -0.707106 186.3 136.355)" stroke="#FF6666" stroke-width="0.853196"/>
<line x1="185.483" y1="118.445" x2="167.271" y2="136.657" stroke="#FF6666" stroke-width="0.853196"/>
<path d="M260.821 42.8628C261.012 41.9619 262.298 41.9619 262.49 42.8628L264.983 54.5853C265.12 55.2276 265.9 55.4813 266.388 55.0419L275.296 47.0239C275.981 46.4076 277.021 47.1634 276.646 48.0049L271.773 58.9542C271.506 59.5542 271.989 60.2182 272.642 60.1497L284.561 58.8986C285.477 58.8025 285.874 60.0253 285.077 60.486L274.699 66.4798C274.13 66.8083 274.13 67.6291 274.699 67.9575L285.077 73.9513C285.874 74.412 285.477 75.6349 284.561 75.5387L272.642 74.2877C271.989 74.2191 271.506 74.8832 271.773 75.4831L276.646 86.4324C277.021 87.2739 275.981 88.0297 275.296 87.4135L266.388 79.3954C265.9 78.956 265.12 79.2097 264.983 79.852L262.49 91.5745C262.298 92.4754 261.012 92.4754 260.821 91.5745L258.327 79.852C258.191 79.2097 257.41 78.956 256.922 79.3954L248.014 87.4135C247.33 88.0297 246.29 87.2739 246.664 86.4324L251.537 75.4831C251.804 74.8832 251.322 74.2191 250.669 74.2877L238.749 75.5387C237.833 75.6349 237.436 74.412 238.234 73.9513L248.612 67.9575C249.18 67.6291 249.18 66.8083 248.612 66.4798L238.234 60.486C237.436 60.0253 237.833 58.8025 238.749 58.8986L250.669 60.1497C251.322 60.2182 251.804 59.5542 251.537 58.9542L246.664 48.0049C246.29 47.1634 247.33 46.4076 248.014 47.0239L256.922 55.0419C257.41 55.4813 258.191 55.2276 258.327 54.5853L260.821 42.8628Z" fill="#FFF500"/>
<circle cx="222.195" cy="61.9585" r="5.26125" fill="#FFF500"/>
<path d="M284.015 131.669C284.015 131.669 275.476 140.218 264.943 140.218C254.41 140.218 245.871 131.669 245.871 131.669C245.871 131.669 254.41 123.119 264.943 123.119C275.476 123.119 284.015 131.669 284.015 131.669Z" fill="white" stroke="white" stroke-width="1.70639" stroke-linecap="round" stroke-linejoin="round"/>
<circle cx="264.943" cy="131.67" r="7.23422" fill="#00BA8D"/>
<circle cx="264.943" cy="131.669" r="3.94594" fill="black"/>
</svg>
